!!!OTL: Zeitenlied. (c. 1550) / (Im Thon. Der Sommer fert uns von hinnen.)
!!!ARE: Europa, Mitteleuropa, Deutschland
!!!SCT: A0404
!!!TXL: @@DE
!!!YEM: Copyright 1995, estate of Helmut Schaffrath.
**kern	**text
!! Mixed meters:  4/2; 6/2
*M4/2yy	*
*clefC3	*
*k[]	*
*C:ion	*
!LO:TX:a:t=jon.	!
{2c	Jſt
=1	=1
2c	doch
2c	in
2c	al-
2G	-len
=2	=2
*M6/2	*
1c	lan-
1d}	-den
{1g	kein
=3	=3
2g	ʒucht
1f	noch
2e	er-
1d	-bar-
=4	=4
*M4/2	*
1c	-keyt,}
2r}	.
{2c	Der
=5	=5
2c	glaub
2c	iſt
2c	gar
2G	ʒu
=6	=6
*M6/2	*
1c	ſchanden
1d}	.
{1g	ge-
=7	=7
2g	-macht
1f	durch
2e	trug
1d	vnd
=8	=8
*M4/2	*
1c	neyd,}
2r}	.
{2f	Fuchs-
=9	=9
2e	-ſchwenʒ
2d	und
2c	Schelmen-
2d	.
=10	=10
*M6/2	*
1e	-ſtü-
1e	-cken
2r}	.
{2e	ſein
=11	=11
1f	jetʒt
2f	in
1g	gro-
2f	-ßer
=12	=12
*M4/2	*
1e	ehr,
2r}	.
{2d	da-
=13	=13
2f	-mit
2e	thut
2d	man
2c	ſich
=14	=14
*M6/2	*
1g	ſchmü-
1g}	-cken,
{1g	kein
=15	=15
2g	treu
1f	iſt
2e	nir-
1d	-gent
=16	=16
*M4/2	*
1.cll}	mehr.
==	==
!!!GTL: Einige historisch-politische Lieder
!!!AGN: Romanze, Ballade, Lied, Kriegslied
!! Dresdner Cod. M. 53. 16. Jh.
!!!ONB: ESAC (Essen Associative Code) Database: ALTDEU
!!!AMT: irregular
!!!AIN: vox
!!!EED: Helmut Schaffrath
!!!EEV: 1.0
!!!RDF**kern: l = terminal long
!!!AMD: Ionian
!!!URL-scan: https://rosdok.uni-rostock.de/mcrviewer/recordIdentifier/rosdok_ppn738218359/iview2/phys_0575.iview2?x=59.00495830516138&y=2408.298077838961&scale=0.7083010262257697&rotation=0&layout=singlePageLayout
!!!ENC: Anna Maria Matuszewska
!!!EEV: 2024/15/03
*-	*-
